docs/.gitbook/assets/icon-umbrella-16@dark.svg

<svg width="32" height="32" viewBox="0 0 16 16" fill="none" xmlns="http://www.w3.org/2000/svg">
<rect x="0" y="0" width="16" height="16" fill="#181c1f"/>
<path fill-rule="evenodd" clip-rule="evenodd" d="M2.90709 6.66047C3.47793 6.42957 4.18412 6.25 5.00002 6.25C6.16411 6.25 7.04998 6.61554 7.64752 6.989C7.779 7.07117 7.89647 7.15367 8.00002 7.2327C8.10357 7.15367 8.22105 7.07117 8.35252 6.989C8.95006 6.61554 9.83593 6.25 11 6.25C11.8159 6.25 12.5221 6.42958 13.093 6.66048C12.952 6.24986 12.7672 5.80133 12.5272 5.35557C11.7315 3.87783 10.3802 2.5 8.00002 2.5C5.61983 2.5 4.26858 3.87783 3.47288 5.35557C3.23286 5.80133 3.04809 6.24985 2.90709 6.66047ZM14.25 8.25C14.9951 8.16403 14.995 8.1637 14.995 8.16335L14.9949 8.16252L14.9947 8.1604L14.9939 8.15439L14.9915 8.13538C14.9895 8.11964 14.9866 8.09785 14.9826 8.0704C14.9748 8.01552 14.9628 7.93792 14.9457 7.84083C14.9116 7.64684 14.8569 7.37389 14.7734 7.04809C14.6071 6.39954 14.3225 5.52583 13.8479 4.64443C12.8936 2.87217 11.1198 1 8.00002 1C4.88022 1 3.10646 2.87217 2.15217 4.64443C1.67757 5.52583 1.39295 6.39954 1.22665 7.04809C1.14311 7.37389 1.08843 7.64684 1.05432 7.84083C1.03725 7.93792 1.02528 8.01552 1.0174 8.0704C1.01346 8.09785 1.01054 8.11964 1.00851 8.13538L1.00612 8.15439L1.00539 8.1604L1.00514 8.16252L1.00505 8.16335C1.00501 8.1637 1.00497 8.16403 1.75002 8.25L1.00497 8.16403C0.968391 8.48103 1.1364 8.78645 1.42371 8.92529C1.70978 9.06353 2.05175 9.00646 2.27743 8.78324L2.28093 8.77988C2.28569 8.77537 2.29495 8.7667 2.30857 8.75447C2.33586 8.72998 2.38045 8.69141 2.44132 8.64335C2.56345 8.54693 2.74874 8.41424 2.98926 8.28062C3.47152 8.01269 4.15895 7.75 5.00002 7.75C5.83593 7.75 6.45006 8.00946 6.85252 8.261C7.02295 8.36752 7.1556 8.47285 7.25002 8.55666V12.625C7.25002 13.1082 6.85827 13.5 6.37502 13.5C5.89177 13.5 5.50002 13.1082 5.50002 12.625V11.75C5.50002 11.3358 5.16424 11 4.75002 11C4.33581 11 4.00002 11.3358 4.00002 11.75V12.625C4.00002 13.9367 5.06335 15 6.37502 15C7.6867 15 8.75002 13.9367 8.75002 12.625V8.55666C8.84445 8.47285 8.9771 8.36752 9.14752 8.261C9.54998 8.00946 10.1641 7.75 11 7.75C11.8411 7.75 12.5285 8.01269 13.0108 8.28062C13.2513 8.41424 13.4366 8.54693 13.5587 8.64335C13.6196 8.69141 13.6642 8.72998 13.6915 8.75447C13.7051 8.7667 13.7144 8.77537 13.7191 8.77988L13.7221 8.78276L13.7211 8.78176L13.7207 8.78137C13.7214 8.782 13.722 8.78263 13.7226 8.78326C13.9483 9.00647 14.2903 9.06352 14.5763 8.92529C14.8637 8.78645 15.0317 8.48103 14.9951 8.16403L14.25 8.25ZM13.7202 8.78084C13.7204 8.78102 13.7206 8.78119 13.7207 8.78137L13.7205 8.7811L13.7202 8.78084ZM7.41879 8.72398L7.41779 8.7228C7.41903 8.72425 7.41936 8.72467 7.41879 8.72398ZM8.58226 8.7228L8.58125 8.72398L8.58099 8.7243C8.58099 8.7243 8.58141 8.72379 8.58226 8.7228Z" fill="#fff"/>
</svg>

<svg xmlns="http://www.w3.org/2000/svg" width="32" height="32" fill="none" viewBox="0 0 16 16"><path fill="#181c1f" d="M0 0h16v16H0z"/><path fill="#fff" fill-rule="evenodd" d="M2.907 6.66c.57-.23 1.277-.41 2.093-.41 1.164 0 2.05.366 2.648.739q.196.124.352.244.155-.12.353-.244A4.95 4.95 0 0 1 11 6.25c.816 0 1.522.18 2.093.41a9 9 0 0 0-.566-1.304C11.732 3.878 10.38 2.5 8 2.5S4.269 3.878 3.473 5.356c-.24.445-.425.894-.566 1.304M14.25 8.25l.745-.087V8.16l-.001-.006-.002-.019-.01-.065-.036-.23a11 11 0 0 0-.173-.792 10.8 10.8 0 0 0-.925-2.404C12.894 2.872 11.12 1 8 1S3.106 2.872 2.152 4.644c-.474.882-.76 1.756-.925 2.404a11 11 0 0 0-.218 1.087l-.003.02v.008h-.001l.745.087-.745-.086a.75.75 0 0 0 1.272.62l.004-.004.028-.026q.04-.038.132-.11a4 4 0 0 1 .548-.363A4.14 4.14 0 0 1 5 7.75c.836 0 1.45.26 1.853.511.17.107.303.212.397.296v4.068a.875.875 0 0 1-1.75 0v-.875a.75.75 0 0 0-1.5 0v.875a2.375 2.375 0 1 0 4.75 0V8.557c.094-.084.227-.19.398-.296A3.45 3.45 0 0 1 11 7.75c.841 0 1.528.263 2.01.53a4 4 0 0 1 .681.474l.028.026.003.003v-.001h-.001l.002.001a.75.75 0 0 0 1.272-.619zm-5.667.473H8.58z" clip-rule="evenodd"/></svg>
